fs/compass_northwest_24_filled.svg

<svg viewBox="0 0 24 24" fill="none" xmlns="http://www.w3.org/2000/svg" height="1em" width="1em">
  <path d="M3.24936 10.9994H2.04881C2.51788 6.27502 6.27502 2.51788 10.9994 2.04881V3.24944C10.9994 3.66365 11.3352 3.99944 11.7494 3.99944C12.1636 3.99944 12.4994 3.66365 12.4994 3.24944V2.01172C17.4566 2.25582 21.4646 6.10951 21.9501 10.9994H20.7494C20.3352 10.9994 19.9994 11.3352 19.9994 11.7494C19.9994 12.1636 20.3352 12.4994 20.7494 12.4994H21.9872C21.7348 17.6244 17.6244 21.7348 12.4994 21.9872V20.7494C12.4994 20.3352 12.1636 19.9994 11.7494 19.9994C11.3352 19.9994 10.9994 20.3352 10.9994 20.7494V21.9501C6.10951 21.4646 2.25582 17.4566 2.01172 12.4994H3.24936C3.66357 12.4994 3.99936 12.1636 3.99936 11.7494C3.99936 11.3352 3.66357 10.9994 3.24936 10.9994ZM14.6532 11.5252C14.2346 10.5484 13.4446 9.77841 12.4574 9.38503L8.42922 7.77987C8.02143 7.61737 7.61715 8.02166 7.77966 8.42945L9.38489 12.4576C9.77828 13.4447 10.5483 14.2347 11.525 14.6533L15.8504 16.5071C16.2653 16.6849 16.6848 16.2654 16.507 15.8506L14.6532 11.5252Z" fill="#212121"/>
</svg>

<svg viewBox="0 0 24 24" fill="none" xmlns="http://www.w3.org/2000/svg" height="1em" width="1em">
  <path d="M3.25 11H2.048a10.003 10.003 0 0 1 8.95-8.951v1.2a.75.75 0 0 0 1.5 0V2.012a10.001 10.001 0 0 1 9.451 8.987h-1.2a.75.75 0 0 0 0 1.5h1.237a10.001 10.001 0 0 1-9.488 9.488V20.75a.75.75 0 0 0-1.5 0v1.201a10 10 0 0 1-8.987-9.45h1.237a.75.75 0 0 0 0-1.5Zm11.403.525a4 4 0 0 0-2.196-2.14L8.43 7.78a.5.5 0 0 0-.65.65l1.606 4.028a4 4 0 0 0 2.14 2.195l4.325 1.854a.5.5 0 0 0 .657-.656l-1.854-4.326Z" fill="#212121"/>
</svg>
